src/Resources/svg/admin/file-image.svg

<?xml version="1.0" encoding="UTF-8" standalone="no"?>
<svg
   xmlns:osb="http://www.openswatchbook.org/uri/2009/osb"
   xmlns:dc="http://purl.org/dc/elements/1.1/"
   xmlns:cc="http://creativecommons.org/ns#"
   xmlns:rdf="http://www.w3.org/1999/02/22-rdf-syntax-ns#"
   xmlns:svg="http://www.w3.org/2000/svg"
   xmlns="http://www.w3.org/2000/svg"
   xmlns:sodipodi="http://sodipodi.sourceforge.net/DTD/sodipodi-0.dtd"
   xmlns:inkscape="http://www.inkscape.org/namespaces/inkscape"
   width="512"
   height="512"
   viewBox="0 0 512 512"
   id="svg2"
   version="1.1"
   inkscape:version="0.91 r13725"
   sodipodi:docname="file-image.svg">
  <metadata
     id="metadata10">
    <rdf:RDF>
      <cc:Work
         rdf:about="">
        <dc:format>image/svg+xml</dc:format>
        <dc:type
           rdf:resource="http://purl.org/dc/dcmitype/StillImage" />
        <dc:title></dc:title>
      </cc:Work>
    </rdf:RDF>
  </metadata>
  <defs
     id="defs8">
    <linearGradient
       id="linearGradient4138"
       osb:paint="solid">
      <stop
         style="stop-color:#ffffff;stop-opacity:1;"
         offset="0"
         id="stop4140" />
    </linearGradient>
  </defs>
  <sodipodi:namedview
     pagecolor="#ffffff"
     bordercolor="#666666"
     borderopacity="1"
     objecttolerance="10"
     gridtolerance="10"
     guidetolerance="10"
     inkscape:pageopacity="0"
     inkscape:pageshadow="2"
     inkscape:window-width="1366"
     inkscape:window-height="715"
     id="namedview6"
     showgrid="false"
     fit-margin-top="0"
     fit-margin-left="0"
     fit-margin-right="0"
     fit-margin-bottom="0"
     inkscape:zoom="1.3037281"
     inkscape:cx="312.09165"
     inkscape:cy="335.06541"
     inkscape:window-x="-8"
     inkscape:window-y="22"
     inkscape:window-maximized="1"
     inkscape:current-layer="svg2" />
  <path
     d="m 462.78419,111.01897 q 7.89062,7.8906 13.52678,21.4174 5.63616,13.5268 5.63616,24.7991 l 0,324.6428 q 0,11.2724 -7.89062,19.163 -7.89063,7.8906 -19.16295,7.8906 l -378.75,0 q -11.27232,0 -19.16295,-7.8906 -7.89062,-7.8906 -7.89062,-19.163 l 0,-450.892794 q 0,-11.2723 7.89062,-19.163 7.89063,-7.8906003 19.16295,-7.8906003 l 252.5,0 q 11.27232,0 24.79911,5.6362001 13.52678,5.6361002 21.41741,13.5267002 z m -125.12277,-68.761194 0,105.959794 105.95982,0 q -2.81808,-8.1724 -6.19978,-11.5541 L 349.21555,48.457576 q -3.3817,-3.3817 -11.55413,-6.1998 z m 108.21428,430.602694 0,-288.5715 -117.23214,0 q -11.27232,0 -19.16295,-7.8906 -7.89062,-7.8906 -7.89062,-19.1629 l 0,-117.232194 -216.42857,0 0,432.857194 360.71428,0 z m -36.07142,-126.25 0,90.1785 -288.57143,0 0,-54.1071 54.10714,-54.1071 36.07143,36.0714 108.21428,-108.2143 z m -234.46429,-54.1072 q -22.54464,0 -38.32589,-15.7812 -15.78125,-15.7813 -15.78125,-38.3259 0,-22.5447 15.78125,-38.3259 15.78125,-15.7813 38.32589,-15.7813 22.54464,0 38.32589,15.7813 15.78125,15.7812 15.78125,38.3259 0,22.5446 -15.78125,38.3259 -15.78125,15.7812 -38.32589,15.7812 z"
     id="path4"
     style="fill:#000000;fill-opacity:1"
     inkscape:connector-curvature="0" />
</svg>

<svg xmlns="http://www.w3.org/2000/svg" width="512" height="512"><path d="M462.784 111.019q7.89 7.89 13.527 21.417 5.636 13.527 5.636 24.8v324.642q0 11.273-7.89 19.163-7.891 7.89-19.163 7.89H76.144q-11.273 0-19.163-7.89-7.891-7.89-7.891-19.163V30.985q0-11.272 7.89-19.163 7.891-7.89 19.164-7.89h252.5q11.272 0 24.799 5.636 13.526 5.636 21.417 13.527zM337.661 42.258v105.96h105.96q-2.818-8.173-6.2-11.555l-88.205-88.205q-3.382-3.382-11.555-6.2zM445.876 472.86V184.29H328.644q-11.273 0-19.163-7.89-7.891-7.891-7.891-19.164V40.003H85.161V472.86h360.715zm-36.072-126.25v90.179H121.233v-54.107l54.107-54.107 36.071 36.071 108.215-108.214zM175.34 292.503q-22.545 0-38.326-15.78-15.781-15.782-15.781-38.327 0-22.545 15.781-38.326 15.781-15.781 38.326-15.781t38.326 15.781q15.781 15.781 15.781 38.326t-15.781 38.326q-15.781 15.781-38.326 15.781z"/></svg>
